svg/business/lantern_2_fill.svg

<?xml version="1.0" encoding="UTF-8"?>
<svg width="24px" height="24px" viewBox="0 0 24 24" version="1.1" xmlns="http://www.w3.org/2000/svg" xmlns:xlink="http://www.w3.org/1999/xlink">
    <title>lantern_2_fill</title>
    <g id="Icon" stroke="none" stroke-width="1" fill="none" fill-rule="evenodd">
        <g id="Business" transform="translate(-385.000000, -528.000000)">
            <g id="lantern_2_fill" transform="translate(385.000000, 528.000000)">
                <path d="M24,0 L24,24 L0,24 L0,0 L24,0 Z M12.5935,23.2578 L12.5819,23.2595 L12.5109,23.295 L12.4919,23.2987 L12.4767,23.295 L12.4057,23.2595 C12.3958,23.2564 12.387,23.259 12.3821,23.2649 L12.378,23.2758 L12.3609,23.7031 L12.3659,23.7235 L12.3769,23.7357 L12.4805,23.8097 L12.4953,23.8136 L12.5071,23.8097 L12.6107,23.7357 L12.6233,23.7197 L12.6267,23.7031 L12.6096,23.2758 C12.6076,23.2657 12.601,23.2593 12.5935,23.2578 Z M12.8584,23.1453 L12.8445,23.1473 L12.6598,23.2397 L12.6499,23.2499 L12.6472,23.2611 L12.6651,23.6906 L12.6699,23.7034 L12.6784,23.7105 L12.8793,23.8032 C12.8914,23.8069 12.9022,23.803 12.9078,23.7952 L12.9118,23.7812 L12.8777,23.1665 C12.8753,23.1546 12.8674,23.147 12.8584,23.1453 Z M12.143,23.1473 C12.1332,23.1424 12.1222,23.1453 12.1156,23.1526 L12.1099,23.1665 L12.0758,23.7812 C12.0751,23.7927 12.0828,23.8019 12.0926,23.8046 L12.1083,23.8032 L12.3092,23.7105 L12.3186,23.7024 L12.3225,23.6906 L12.3404,23.2611 L12.3372,23.2485 L12.3278,23.2397 L12.143,23.1473 Z" id="MingCute" fill-rule="nonzero"></path>
                <path d="M12,2 C12.5523,2 13,2.44772 13,3 L13,4 L14,4 C14.5523,4 15,4.44772 15,5 C16.6569,5 18,6.34315 18,8 L18,16 C18,17.6569 16.6569,19 15,19 L14.4595,19 C14.4086,19.6103 14.3163,20.108 14.2201,20.4925 C14.1913,20.60774 14.162196,20.712692 14.1338184,20.8073368 L14.0518952,21.0603304 C14.038948,21.097336 14.02644,21.13176 14.0145,21.1636 L13.9584,21.3062375 L13.9584,21.3062375 L13.8944,21.4472 C13.6474,21.9412 13.0468,22.1414 12.5528,21.8944 C12.0622,21.6491 11.8614,21.055 12.1005,20.563 C12.18,20.3857 12.2329,20.1953 12.2799,20.0075 C12.3424,19.7575 12.4079,19.4217 12.451,19 L11.4253,19 C11.3183,19.6985 11.1104,20.2653 10.8944,20.6972 C10.7397,21.0067 10.5818,21.245 10.4562,21.4125 C10.3793,21.5151 10.2984,21.6154 10.2078,21.7064 C9.81728,22.0969 9.18342,22.0976 8.79289,21.7071 C8.40572,21.3199 8.4024,20.6943 8.78293,20.303 C8.91453,20.1553 9.01754,19.9788 9.10557,19.8028 C9.20724,19.5995 9.31374,19.3323 9.39042,19 L9,19 C7.34315,19 6,17.6569 6,16 L6,8 C6,6.34315 7.34315,5 9,5 C9,4.44772 9.44771,4 10,4 L11,4 L11,3 C11,2.44772 11.4477,2 12,2 Z M11,7 C9.94563773,7 9.08183483,7.81587733 9.00548573,8.85073759 L9,9 L9,15 C9,16.0543909 9.81587733,16.9181678 10.8507376,16.9945144 L11,17 L11,7 Z M13,7 L13,17 C14.1046,17 15,16.1046 15,15 L15,9 C15,7.89543 14.1046,7 13,7 Z" id="形状" fill="#09244B"></path>
            </g>
        </g>
    </g>
</svg>

<svg xmlns="http://www.w3.org/2000/svg" width="24" height="24"><g fill="none" fill-rule="evenodd"><path d="M24 0v24H0V0zM12.594 23.258l-.012.002-.071.035-.02.004-.014-.004-.071-.036c-.01-.003-.019 0-.024.006l-.004.01-.017.428.005.02.01.013.104.074.015.004.012-.004.104-.074.012-.016.004-.017-.017-.427c-.002-.01-.009-.017-.016-.018m.264-.113-.014.002-.184.093-.01.01-.003.011.018.43.005.012.008.008.201.092c.012.004.023 0 .029-.008l.004-.014-.034-.614c-.003-.012-.01-.02-.02-.022m-.715.002a.023.023 0 0 0-.027.006l-.006.014-.034.614c0 .012.007.02.017.024l.015-.002.201-.093.01-.008.003-.011.018-.43-.003-.012-.01-.01z"/><path fill="#09244B" d="M12 2a1 1 0 0 1 1 1v1h1a1 1 0 0 1 1 1 3 3 0 0 1 3 3v8a3 3 0 0 1-3 3h-.54a9.37 9.37 0 0 1-.24 1.492 7.04 7.04 0 0 1-.086.315l-.082.253a4.947 4.947 0 0 1-.037.104l-.057.142-.064.141a1 1 0 0 1-1.793-.884c.079-.177.132-.368.179-.555.062-.25.128-.586.171-1.008h-1.026a5.725 5.725 0 0 1-.53 1.697 4.69 4.69 0 0 1-.439.716 2.753 2.753 0 0 1-.248.293 1 1 0 0 1-1.425-1.403c.132-.148.235-.324.323-.5.101-.204.208-.47.284-.803H9a3 3 0 0 1-3-3V8a3 3 0 0 1 3-3 1 1 0 0 1 1-1h1V3a1 1 0 0 1 1-1m-1 5a2 2 0 0 0-1.995 1.85L9 9v6a2 2 0 0 0 1.85 1.995L11 17zm2 0v10a2 2 0 0 0 2-2V9a2 2 0 0 0-2-2"/></g></svg>
